images/3232613.svg

<?xml version="1.0" encoding="UTF-8"?>
<svg xmlns="http://www.w3.org/2000/svg" xmlns:xlink="http://www.w3.org/1999/xlink" width="300pt" height="300pt" viewBox="0 0 300 300" version="1.1">
<defs>
<g>
<symbol overflow="visible" id="glyph0-0">
<path style="stroke:none;" d="M 0.59375 2.125 L 0.59375 -8.46875 L 6.59375 -8.46875 L 6.59375 2.125 Z M 1.265625 1.453125 L 5.9375 1.453125 L 5.9375 -7.78125 L 1.265625 -7.78125 Z M 1.265625 1.453125 "/>
</symbol>
<symbol overflow="visible" id="glyph0-1">
<path style="stroke:none;" d="M 1.171875 -8.75 L 2.765625 -8.75 L 6.65625 -1.4375 L 6.65625 -8.75 L 7.796875 -8.75 L 7.796875 0 L 6.203125 0 L 2.328125 -7.3125 L 2.328125 0 L 1.171875 0 Z M 1.171875 -8.75 "/>
</symbol>
<symbol overflow="visible" id="glyph0-2">
<path style="stroke:none;" d="M 4.734375 -7.953125 C 3.867188 -7.953125 3.179688 -7.628906 2.671875 -6.984375 C 2.171875 -6.347656 1.921875 -5.472656 1.921875 -4.359375 C 1.921875 -3.265625 2.171875 -2.394531 2.671875 -1.75 C 3.179688 -1.113281 3.867188 -0.796875 4.734375 -0.796875 C 5.585938 -0.796875 6.265625 -1.113281 6.765625 -1.75 C 7.273438 -2.394531 7.53125 -3.265625 7.53125 -4.359375 C 7.53125 -5.472656 7.273438 -6.347656 6.765625 -6.984375 C 6.265625 -7.628906 5.585938 -7.953125 4.734375 -7.953125 Z M 4.734375 -8.90625 C 5.953125 -8.90625 6.925781 -8.492188 7.65625 -7.671875 C 8.394531 -6.847656 8.765625 -5.742188 8.765625 -4.359375 C 8.765625 -2.984375 8.394531 -1.882812 7.65625 -1.0625 C 6.925781 -0.238281 5.953125 0.171875 4.734375 0.171875 C 3.503906 0.171875 2.519531 -0.238281 1.78125 -1.0625 C 1.039062 -1.882812 0.671875 -2.984375 0.671875 -4.359375 C 0.671875 -5.742188 1.039062 -6.847656 1.78125 -7.671875 C 2.519531 -8.492188 3.503906 -8.90625 4.734375 -8.90625 Z M 4.734375 -8.90625 "/>
</symbol>
<symbol overflow="visible" id="glyph0-3">
<path style="stroke:none;" d="M 1.171875 -8.75 L 2.359375 -8.75 L 2.359375 -5.15625 L 6.65625 -5.15625 L 6.65625 -8.75 L 7.84375 -8.75 L 7.84375 0 L 6.65625 0 L 6.65625 -4.171875 L 2.359375 -4.171875 L 2.359375 0 L 1.171875 0 Z M 1.171875 -8.75 "/>
</symbol>
</g>
</defs>
<g id="surface43221">
<rect x="0" y="0" width="300" height="300" style="fill:rgb(100%,100%,100%);fill-opacity:1;stroke:none;"/>
<path style="fill:none;stroke-width:1.2;stroke-linecap:butt;stroke-linejoin:miter;stroke:rgb(0%,0%,0%);stroke-opacity:1;stroke-miterlimit:10;" d="M 48.238281 210.285156 L 69.40625 190.5625 "/>
<path style="fill:none;stroke-width:1.2;stroke-linecap:butt;stroke-linejoin:miter;stroke:rgb(0%,0%,0%);stroke-opacity:1;stroke-miterlimit:10;" d="M 69.40625 190.5625 L 83.242188 194.800781 "/>
<path style="fill:none;stroke-width:1.2;stroke-linecap:butt;stroke-linejoin:miter;stroke:rgb(0%,0%,100%);stroke-opacity:1;stroke-miterlimit:10;" d="M 83.242188 194.800781 L 97.074219 199.039062 "/>
<path style="fill:none;stroke-width:1.2;stroke-linecap:butt;stroke-linejoin:miter;stroke:rgb(0%,0%,0%);stroke-opacity:1;stroke-miterlimit:10;" d="M 74.167969 184.902344 L 85.234375 188.292969 "/>
<path style="fill:none;stroke-width:1.2;stroke-linecap:butt;stroke-linejoin:miter;stroke:rgb(0%,0%,100%);stroke-opacity:1;stroke-miterlimit:10;" d="M 85.234375 188.292969 L 96.300781 191.679688 "/>
<path style="fill:none;stroke-width:1.2;stroke-linecap:butt;stroke-linejoin:miter;stroke:rgb(0%,0%,0%);stroke-opacity:1;stroke-miterlimit:10;" d="M 62.914062 162.367188 L 69.40625 190.5625 "/>
<path style="fill:none;stroke-width:1.2;stroke-linecap:butt;stroke-linejoin:miter;stroke:rgb(0%,0%,100%);stroke-opacity:1;stroke-miterlimit:10;" d="M 97.074219 199.039062 L 107.65625 189.175781 "/>
<path style="fill:none;stroke-width:1.2;stroke-linecap:butt;stroke-linejoin:miter;stroke:rgb(0%,0%,0%);stroke-opacity:1;stroke-miterlimit:10;" d="M 107.65625 189.175781 L 118.242188 179.316406 "/>
<path style=" stroke:none;fill-rule:nonzero;fill:rgb(100%,100%,100%);fill-opacity:1;" d="M 93.074219 192.039062 L 102.074219 192.039062 L 102.074219 206.039062 L 93.074219 206.039062 Z M 93.074219 192.039062 "/>
<g style="fill:rgb(0%,0%,100%);fill-opacity:1;">
  <use xlink:href="#glyph0-1" x="93.074219" y="203.177734"/>
</g>
<path style="fill:none;stroke-width:1.2;stroke-linecap:butt;stroke-linejoin:miter;stroke:rgb(0%,0%,0%);stroke-opacity:1;stroke-miterlimit:10;" d="M 118.242188 179.316406 L 145.90625 187.789062 "/>
<path style="fill:none;stroke-width:1.2;stroke-linecap:butt;stroke-linejoin:miter;stroke:rgb(0%,0%,0%);stroke-opacity:1;stroke-miterlimit:10;" d="M 123.003906 173.65625 L 145.136719 180.433594 "/>
<path style="fill:none;stroke-width:1.2;stroke-linecap:butt;stroke-linejoin:miter;stroke:rgb(0%,0%,0%);stroke-opacity:1;stroke-miterlimit:10;" d="M 111.75 151.121094 L 118.242188 179.316406 "/>
<path style="fill:none;stroke-width:1.2;stroke-linecap:butt;stroke-linejoin:miter;stroke:rgb(0%,0%,0%);stroke-opacity:1;stroke-miterlimit:10;" d="M 145.90625 187.789062 L 156.492188 177.929688 "/>
<path style="fill:none;stroke-width:1.2;stroke-linecap:butt;stroke-linejoin:miter;stroke:rgb(0%,0%,100%);stroke-opacity:1;stroke-miterlimit:10;" d="M 156.492188 177.929688 L 167.078125 168.070312 "/>
<path style="fill:none;stroke-width:1.2;stroke-linecap:butt;stroke-linejoin:miter;stroke:rgb(0%,0%,100%);stroke-opacity:1;stroke-miterlimit:10;" d="M 167.078125 168.070312 L 163.832031 153.972656 "/>
<path style="fill:none;stroke-width:1.2;stroke-linecap:butt;stroke-linejoin:miter;stroke:rgb(0%,0%,0%);stroke-opacity:1;stroke-miterlimit:10;" d="M 163.832031 153.972656 L 160.585938 139.875 "/>
<path style="fill:none;stroke-width:1.2;stroke-linecap:butt;stroke-linejoin:miter;stroke:rgb(0%,0%,100%);stroke-opacity:1;stroke-miterlimit:10;" d="M 159.796875 166.777344 L 157.199219 155.5 "/>
<path style="fill:none;stroke-width:1.2;stroke-linecap:butt;stroke-linejoin:miter;stroke:rgb(0%,0%,0%);stroke-opacity:1;stroke-miterlimit:10;" d="M 157.199219 155.5 L 154.601562 144.222656 "/>
<path style=" stroke:none;fill-rule:nonzero;fill:rgb(100%,100%,100%);fill-opacity:1;" d="M 163.078125 161.070312 L 172.078125 161.070312 L 172.078125 175.070312 L 163.078125 175.070312 Z M 163.078125 161.070312 "/>
<g style="fill:rgb(0%,0%,100%);fill-opacity:1;">
  <use xlink:href="#glyph0-1" x="163.078125" y="172.208984"/>
</g>
<path style="fill:none;stroke-width:1.2;stroke-linecap:butt;stroke-linejoin:miter;stroke:rgb(0%,0%,0%);stroke-opacity:1;stroke-miterlimit:10;" d="M 160.585938 139.875 L 146.753906 135.636719 "/>
<path style="fill:none;stroke-width:1.2;stroke-linecap:butt;stroke-linejoin:miter;stroke:rgb(0%,0%,100%);stroke-opacity:1;stroke-miterlimit:10;" d="M 146.753906 135.636719 L 132.921875 131.398438 "/>
<path style="fill:none;stroke-width:1.2;stroke-linecap:butt;stroke-linejoin:miter;stroke:rgb(0%,0%,0%);stroke-opacity:1;stroke-miterlimit:10;" d="M 160.585938 139.875 L 171.171875 130.011719 "/>
<path style="fill:none;stroke-width:1.2;stroke-linecap:butt;stroke-linejoin:miter;stroke:rgb(0%,0%,100%);stroke-opacity:1;stroke-miterlimit:10;" d="M 171.171875 130.011719 L 181.757812 120.152344 "/>
<path style="fill:none;stroke-width:1.2;stroke-linecap:butt;stroke-linejoin:miter;stroke:rgb(0%,0%,100%);stroke-opacity:1;stroke-miterlimit:10;" d="M 132.921875 131.398438 L 122.335938 141.261719 "/>
<path style="fill:none;stroke-width:1.2;stroke-linecap:butt;stroke-linejoin:miter;stroke:rgb(0%,0%,0%);stroke-opacity:1;stroke-miterlimit:10;" d="M 122.335938 141.261719 L 111.75 151.121094 "/>
<path style="fill:none;stroke-width:1.2;stroke-linecap:butt;stroke-linejoin:miter;stroke:rgb(0%,0%,100%);stroke-opacity:1;stroke-miterlimit:10;" d="M 135.445312 138.355469 L 126.976562 146.242188 "/>
<path style="fill:none;stroke-width:1.2;stroke-linecap:butt;stroke-linejoin:miter;stroke:rgb(0%,0%,0%);stroke-opacity:1;stroke-miterlimit:10;" d="M 126.976562 146.242188 L 118.507812 154.128906 "/>
<path style=" stroke:none;fill-rule:nonzero;fill:rgb(100%,100%,100%);fill-opacity:1;" d="M 128.921875 124.398438 L 137.921875 124.398438 L 137.921875 138.398438 L 128.921875 138.398438 Z M 128.921875 124.398438 "/>
<g style="fill:rgb(0%,0%,100%);fill-opacity:1;">
  <use xlink:href="#glyph0-1" x="128.921875" y="135.537109"/>
</g>
<path style="fill:none;stroke-width:1.2;stroke-linecap:butt;stroke-linejoin:miter;stroke:rgb(0%,0%,0%);stroke-opacity:1;stroke-miterlimit:10;" d="M 111.75 151.121094 L 97.917969 146.882812 "/>
<path style="fill:none;stroke-width:1.2;stroke-linecap:butt;stroke-linejoin:miter;stroke:rgb(0%,0%,100%);stroke-opacity:1;stroke-miterlimit:10;" d="M 97.917969 146.882812 L 84.085938 142.648438 "/>
<path style="fill:none;stroke-width:1.2;stroke-linecap:butt;stroke-linejoin:miter;stroke:rgb(0%,0%,100%);stroke-opacity:1;stroke-miterlimit:10;" d="M 84.085938 142.648438 L 73.5 152.507812 "/>
<path style="fill:none;stroke-width:1.2;stroke-linecap:butt;stroke-linejoin:miter;stroke:rgb(0%,0%,0%);stroke-opacity:1;stroke-miterlimit:10;" d="M 73.5 152.507812 L 62.914062 162.367188 "/>
<path style="fill:none;stroke-width:1.2;stroke-linecap:butt;stroke-linejoin:miter;stroke:rgb(0%,0%,100%);stroke-opacity:1;stroke-miterlimit:10;" d="M 84.085938 142.648438 L 80.839844 128.550781 "/>
<path style="fill:none;stroke-width:1.2;stroke-linecap:butt;stroke-linejoin:miter;stroke:rgb(0%,0%,0%);stroke-opacity:1;stroke-miterlimit:10;" d="M 80.839844 128.550781 L 77.59375 114.453125 "/>
<path style=" stroke:none;fill-rule:nonzero;fill:rgb(100%,100%,100%);fill-opacity:1;" d="M 80.085938 135.648438 L 89.085938 135.648438 L 89.085938 149.648438 L 80.085938 149.648438 Z M 80.085938 135.648438 "/>
<g style="fill:rgb(0%,0%,100%);fill-opacity:1;">
  <use xlink:href="#glyph0-1" x="80.085938" y="146.787109"/>
</g>
<path style="fill:none;stroke-width:1.2;stroke-linecap:butt;stroke-linejoin:miter;stroke:rgb(0%,0%,0%);stroke-opacity:1;stroke-miterlimit:10;" d="M 63.910156 159.113281 L 50.078125 154.878906 "/>
<path style="fill:none;stroke-width:1.2;stroke-linecap:butt;stroke-linejoin:miter;stroke:rgb(100%,0%,0%);stroke-opacity:1;stroke-miterlimit:10;" d="M 50.078125 154.878906 L 36.246094 150.640625 "/>
<path style="fill:none;stroke-width:1.2;stroke-linecap:butt;stroke-linejoin:miter;stroke:rgb(0%,0%,0%);stroke-opacity:1;stroke-miterlimit:10;" d="M 61.917969 165.625 L 48.085938 161.386719 "/>
<path style="fill:none;stroke-width:1.2;stroke-linecap:butt;stroke-linejoin:miter;stroke:rgb(100%,0%,0%);stroke-opacity:1;stroke-miterlimit:10;" d="M 48.085938 161.386719 L 34.253906 157.148438 "/>
<path style=" stroke:none;fill-rule:nonzero;fill:rgb(100%,100%,100%);fill-opacity:1;" d="M 25.25 146.894531 L 35.25 146.894531 L 35.25 160.894531 L 25.25 160.894531 Z M 25.25 146.894531 "/>
<g style="fill:rgb(100%,0%,0%);fill-opacity:1;">
  <use xlink:href="#glyph0-2" x="25.25" y="158.033203"/>
</g>
<path style="fill:none;stroke-width:1.2;stroke-linecap:butt;stroke-linejoin:miter;stroke:rgb(0%,0%,0%);stroke-opacity:1;stroke-miterlimit:10;" d="M 77.59375 114.453125 L 57.871094 93.28125 "/>
<path style="fill:none;stroke-width:1.2;stroke-linecap:butt;stroke-linejoin:miter;stroke:rgb(0%,0%,0%);stroke-opacity:1;stroke-miterlimit:10;" d="M 86.066406 86.789062 L 77.59375 114.453125 "/>
<path style="fill:none;stroke-width:1.2;stroke-linecap:butt;stroke-linejoin:miter;stroke:rgb(0%,0%,0%);stroke-opacity:1;stroke-miterlimit:10;" d="M 57.871094 93.28125 L 86.066406 86.789062 "/>
<path style="fill:none;stroke-width:1.2;stroke-linecap:butt;stroke-linejoin:miter;stroke:rgb(0%,0%,100%);stroke-opacity:1;stroke-miterlimit:10;" d="M 181.757812 120.152344 L 195.589844 124.390625 "/>
<path style="fill:none;stroke-width:1.2;stroke-linecap:butt;stroke-linejoin:miter;stroke:rgb(0%,0%,0%);stroke-opacity:1;stroke-miterlimit:10;" d="M 195.589844 124.390625 L 209.421875 128.625 "/>
<path style=" stroke:none;fill-rule:nonzero;fill:rgb(100%,100%,100%);fill-opacity:1;" d="M 172.757812 113.152344 L 190.757812 113.152344 L 190.757812 127.152344 L 172.757812 127.152344 Z M 172.757812 113.152344 "/>
<g style="fill:rgb(0%,0%,100%);fill-opacity:1;">
  <use xlink:href="#glyph0-1" x="172.757812" y="124.291016"/>
  <use xlink:href="#glyph0-3" x="181.734375" y="124.291016"/>
</g>
<path style="fill:none;stroke-width:1.2;stroke-linecap:butt;stroke-linejoin:miter;stroke:rgb(0%,0%,0%);stroke-opacity:1;stroke-miterlimit:10;" d="M 209.421875 128.625 L 215.914062 156.820312 "/>
<path style="fill:none;stroke-width:1.2;stroke-linecap:butt;stroke-linejoin:miter;stroke:rgb(0%,0%,0%);stroke-opacity:1;stroke-miterlimit:10;" d="M 216.703125 129.917969 L 221.898438 152.472656 "/>
<path style="fill:none;stroke-width:1.2;stroke-linecap:butt;stroke-linejoin:miter;stroke:rgb(0%,0%,0%);stroke-opacity:1;stroke-miterlimit:10;" d="M 230.59375 108.90625 L 209.421875 128.625 "/>
<path style="fill:none;stroke-width:1.2;stroke-linecap:butt;stroke-linejoin:miter;stroke:rgb(0%,0%,0%);stroke-opacity:1;stroke-miterlimit:10;" d="M 215.914062 156.820312 L 243.578125 165.296875 "/>
<path style="fill:none;stroke-width:1.2;stroke-linecap:butt;stroke-linejoin:miter;stroke:rgb(0%,0%,0%);stroke-opacity:1;stroke-miterlimit:10;" d="M 243.578125 165.296875 L 264.75 145.574219 "/>
<path style="fill:none;stroke-width:1.2;stroke-linecap:butt;stroke-linejoin:miter;stroke:rgb(0%,0%,0%);stroke-opacity:1;stroke-miterlimit:10;" d="M 241.054688 158.34375 L 257.992188 142.566406 "/>
<path style="fill:none;stroke-width:1.2;stroke-linecap:butt;stroke-linejoin:miter;stroke:rgb(0%,0%,0%);stroke-opacity:1;stroke-miterlimit:10;" d="M 243.578125 165.296875 L 246.824219 179.394531 "/>
<path style="fill:none;stroke-width:1.2;stroke-linecap:butt;stroke-linejoin:miter;stroke:rgb(100%,0%,0%);stroke-opacity:1;stroke-miterlimit:10;" d="M 246.824219 179.394531 L 250.074219 193.492188 "/>
<path style="fill:none;stroke-width:1.2;stroke-linecap:butt;stroke-linejoin:miter;stroke:rgb(0%,0%,0%);stroke-opacity:1;stroke-miterlimit:10;" d="M 264.75 145.574219 L 258.257812 117.378906 "/>
<path style="fill:none;stroke-width:1.2;stroke-linecap:butt;stroke-linejoin:miter;stroke:rgb(0%,0%,0%);stroke-opacity:1;stroke-miterlimit:10;" d="M 258.257812 117.378906 L 230.59375 108.90625 "/>
<path style="fill:none;stroke-width:1.2;stroke-linecap:butt;stroke-linejoin:miter;stroke:rgb(0%,0%,0%);stroke-opacity:1;stroke-miterlimit:10;" d="M 253.496094 123.042969 L 231.363281 116.261719 "/>
<path style="fill:none;stroke-width:1.2;stroke-linecap:butt;stroke-linejoin:miter;stroke:rgb(100%,0%,0%);stroke-opacity:1;stroke-miterlimit:10;" d="M 250.074219 193.492188 L 239.488281 203.351562 "/>
<path style="fill:none;stroke-width:1.2;stroke-linecap:butt;stroke-linejoin:miter;stroke:rgb(0%,0%,0%);stroke-opacity:1;stroke-miterlimit:10;" d="M 239.488281 203.351562 L 228.902344 213.210938 "/>
<path style=" stroke:none;fill-rule:nonzero;fill:rgb(100%,100%,100%);fill-opacity:1;" d="M 245.074219 186.492188 L 255.074219 186.492188 L 255.074219 200.492188 L 245.074219 200.492188 Z M 245.074219 186.492188 "/>
<g style="fill:rgb(100%,0%,0%);fill-opacity:1;">
  <use xlink:href="#glyph0-2" x="245.074219" y="197.630859"/>
</g>
</g>
</svg>

<svg xmlns="http://www.w3.org/2000/svg" xmlns:xlink="http://www.w3.org/1999/xlink" width="300pt" height="300pt" viewBox="0 0 300 300"><defs><symbol overflow="visible"><path d="M.594 2.125V-8.47h6V2.126zm.672-.672h4.671V-7.78h-4.67zm0 0"/></symbol><symbol overflow="visible" id="a"><path d="M1.172-8.75h1.594l3.89 7.313V-8.75h1.14V0H6.204L2.328-7.313V0H1.172zm0 0"/></symbol><symbol overflow="visible" id="b"><path d="M4.734-7.953c-.867 0-1.554.324-2.062.97-.5.635-.75 1.51-.75 2.624 0 1.094.25 1.965.75 2.61.508.637 1.195.953 2.062.953.852 0 1.532-.316 2.032-.953.507-.645.765-1.516.765-2.61 0-1.113-.257-1.988-.764-2.624-.5-.645-1.18-.97-2.032-.97zm0-.953c1.22 0 2.192.414 2.922 1.234.74.824 1.11 1.93 1.11 3.313 0 1.376-.37 2.477-1.11 3.298C6.926-.24 5.953.17 4.734.17c-1.23 0-2.214-.41-2.953-1.234C1.04-1.882.673-2.984.673-4.36c0-1.382.367-2.488 1.11-3.312.738-.82 1.722-1.234 2.952-1.234zm0 0"/></symbol><symbol overflow="visible" id="c"><path d="M1.172-8.75H2.36v3.594h4.296V-8.75h1.188V0H6.656v-4.172H2.36V0H1.17zm0 0"/></symbol></defs><g><path fill="#fff" d="M0 0h300v300H0z"/><path d="M48.238 210.285l21.168-19.722M69.406 190.563l13.836 4.238" stroke-width="1.2" stroke="#000" stroke-miterlimit="10" fill="none"/><path d="M83.242 194.8l13.832 4.24" stroke-width="1.2" stroke="#00f" stroke-miterlimit="10" fill="none"/><path d="M74.168 184.902l11.066 3.39" stroke-width="1.2" stroke="#000" stroke-miterlimit="10" fill="none"/><path d="M85.234 188.293L96.3 191.68" stroke-width="1.2" stroke="#00f" stroke-miterlimit="10" fill="none"/><path d="M62.914 162.367l6.492 28.196" stroke-width="1.2" stroke="#000" stroke-miterlimit="10" fill="none"/><path d="M97.074 199.04l10.582-9.864" stroke-width="1.2" stroke="#00f" stroke-miterlimit="10" fill="none"/><path d="M107.656 189.176l10.586-9.86" stroke-width="1.2" stroke="#000" stroke-miterlimit="10" fill="none"/><path d="M93.074 192.04h9v14h-9zm0 0" fill="#fff"/><use xlink:href="#a" x="93.074" y="203.178" fill="#00f"/><path d="M118.242 179.316l27.664 8.473M123.004 173.656l22.133 6.778M111.75 151.12l6.492 28.196M145.906 187.79l10.586-9.86" stroke-width="1.2" stroke="#000" stroke-miterlimit="10" fill="none"/><path d="M156.492 177.93l10.586-9.86M167.078 168.07l-3.246-14.097" stroke-width="1.2" stroke="#00f" stroke-miterlimit="10" fill="none"/><path d="M163.832 153.973l-3.246-14.098" stroke-width="1.2" stroke="#000" stroke-miterlimit="10" fill="none"/><path d="M159.797 166.777L157.2 155.5" stroke-width="1.2" stroke="#00f" stroke-miterlimit="10" fill="none"/><path d="M157.2 155.5l-2.598-11.277" stroke-width="1.2" stroke="#000" stroke-miterlimit="10" fill="none"/><path d="M163.078 161.07h9v14h-9zm0 0" fill="#fff"/><use xlink:href="#a" x="163.078" y="172.209" fill="#00f"/><path d="M160.586 139.875l-13.832-4.238" stroke-width="1.2" stroke="#000" stroke-miterlimit="10" fill="none"/><path d="M146.754 135.637l-13.832-4.24" stroke-width="1.2" stroke="#00f" stroke-miterlimit="10" fill="none"/><path d="M160.586 139.875l10.586-9.863" stroke-width="1.2" stroke="#000" stroke-miterlimit="10" fill="none"/><path d="M171.172 130.012l10.586-9.86M132.922 131.398l-10.586 9.864" stroke-width="1.2" stroke="#00f" stroke-miterlimit="10" fill="none"/><path d="M122.336 141.262l-10.586 9.86" stroke-width="1.2" stroke="#000" stroke-miterlimit="10" fill="none"/><path d="M135.445 138.355l-8.468 7.887" stroke-width="1.2" stroke="#00f" stroke-miterlimit="10" fill="none"/><path d="M126.977 146.242l-8.47 7.887" stroke-width="1.2" stroke="#000" stroke-miterlimit="10" fill="none"/><path d="M128.922 124.398h9v14h-9zm0 0" fill="#fff"/><use xlink:href="#a" x="128.922" y="135.537" fill="#00f"/><path d="M111.75 151.12l-13.832-4.237" stroke-width="1.2" stroke="#000" stroke-miterlimit="10" fill="none"/><path d="M97.918 146.883l-13.832-4.235M84.086 142.648l-10.586 9.86" stroke-width="1.2" stroke="#00f" stroke-miterlimit="10" fill="none"/><path d="M73.5 152.508l-10.586 9.86" stroke-width="1.2" stroke="#000" stroke-miterlimit="10" fill="none"/><path d="M84.086 142.648L80.84 128.55" stroke-width="1.2" stroke="#00f" stroke-miterlimit="10" fill="none"/><path d="M80.84 128.55l-3.246-14.097" stroke-width="1.2" stroke="#000" stroke-miterlimit="10" fill="none"/><path d="M80.086 135.648h9v14h-9zm0 0" fill="#fff"/><use xlink:href="#a" x="80.086" y="146.787" fill="#00f"/><path d="M63.91 159.113l-13.832-4.234" stroke-width="1.2" stroke="#000" stroke-miterlimit="10" fill="none"/><path d="M50.078 154.88l-13.832-4.24" stroke-width="1.2" stroke="#f00" stroke-miterlimit="10" fill="none"/><path d="M61.918 165.625l-13.832-4.238" stroke-width="1.2" stroke="#000" stroke-miterlimit="10" fill="none"/><path d="M48.086 161.387l-13.832-4.24" stroke-width="1.2" stroke="#f00" stroke-miterlimit="10" fill="none"/><path d="M25.25 146.895h10v14h-10zm0 0" fill="#fff"/><use xlink:href="#b" x="25.25" y="158.033" fill="#f00"/><path d="M77.594 114.453L57.87 93.28M86.066 86.79l-8.472 27.663M57.87 93.28l28.196-6.49" stroke-width="1.2" stroke="#000" stroke-miterlimit="10" fill="none"/><path d="M181.758 120.152l13.832 4.24" stroke-width="1.2" stroke="#00f" stroke-miterlimit="10" fill="none"/><path d="M195.59 124.39l13.832 4.235" stroke-width="1.2" stroke="#000" stroke-miterlimit="10" fill="none"/><path d="M172.758 113.152h18v14h-18zm0 0" fill="#fff"/><g fill="#00f"><use xlink:href="#a" x="172.758" y="124.291"/><use xlink:href="#c" x="181.734" y="124.291"/></g><path d="M209.422 128.625l6.492 28.195M216.703 129.918l5.195 22.555M230.594 108.906l-21.172 19.72M215.914 156.82l27.664 8.477M243.578 165.297l21.172-19.723M241.055 158.344l16.937-15.778M243.578 165.297l3.246 14.098" stroke-width="1.2" stroke="#000" stroke-miterlimit="10" fill="none"/><path d="M246.824 179.395l3.25 14.097" stroke-width="1.2" stroke="#f00" stroke-miterlimit="10" fill="none"/><path d="M264.75 145.574l-6.492-28.195M258.258 117.38l-27.664-8.474M253.496 123.043l-22.133-6.78" stroke-width="1.2" stroke="#000" stroke-miterlimit="10" fill="none"/><path d="M250.074 193.492l-10.586 9.86" stroke-width="1.2" stroke="#f00" stroke-miterlimit="10" fill="none"/><path d="M239.488 203.352l-10.586 9.86" stroke-width="1.2" stroke="#000" stroke-miterlimit="10" fill="none"/><path d="M245.074 186.492h10v14h-10zm0 0" fill="#fff"/><use xlink:href="#b" x="245.074" y="197.631" fill="#f00"/></g></svg>
